X: 10
T: The High Road To Linton
R: reel
M: 4/4
L: 1/8
K: Amaj
A2 ce a2 a2 | fefg a2 a2 | A2 ce a2 a2 | faec B2 A2 :|
ce e2 fd d2 | ecAc dB B2 | ce e2 fd d2 | faec B2 A2 :|


Tune 1118	Setting 16924

